X: 1992
T: Yine Bir Sızı Var İçimde
C: Şerif İçli
O: Turkey
F: http://compmusic.upf.edu/node/140
N: huzzam--sarki--aksak--yine_bir--serif_icli
N: makam= huzzam
N: form= sarki
N: usul= aksak = 9/8
M: 9/8
L: 1/16
K: C _1/4B _3/4e ^3/4f 
Q: 1/4=132
%%MIDI tuningsystem comma53
cd2d d2de dcBc dede dc | de2dag gffe edd2 e2f2  | 
w:  ARANAĞME  |   | 
df2f f2ed fga_b agfe dc | Bc def2 eddc cBB2 c2d2  | 
w:   |   | 
cd2d d2de dcBc dede dc | de2dag gffe edd2 e2f2  | 
w:  ARANAĞME  |   | 
df2f f2ed fga_b agfe dc | Bc def2 eddc cBB4z2  | 
w:   |   | 
d4 c2d2 d4 d2f2 ed | d3cdc cBB8z2  | \
w:  *  Yi ne  bir   |  *  *  sı *  zı  *  var   | 
B2dc B2cd c4 d4 z2 | 
w:  i çim *  *  *  *  de   | 
d4e3/2d/ e2f3/2e/ f2g2 e2ed  | d6fe dcB^A B3c Bc | 
w:  ak şam  *  *  ol *  *  du  *  di  |  ye   SAZ  | 
d4c2 d2d4d2 f2ed  | d3c dccB B8 z2 | \
w:  *  Yi ne  bir   |  *  *  sı *  zı  *  var   | 
B2 dcB2 cdc4d4z2  | 
w:  i çim *  *  *  *  de   | 
d4 e3/2d/e2 f3/2e/f2 g2e2 ed | d6 fedc Bcd4z2  | \
w:  ak şam  *  *  ol *  *  du  *  di  |  ye   SAZ  | 
f2g2 f2e2 d2e2 f2g2 gf | 
w:  Gö züm   | 
f3efe edd4d2 edcB  | c2e4d2 e2d2 e2f2 g2 | \
w:  *  *  a *  cı *  yor   |  *  ağ la rım   | 
f4e4d4_1/4ed c2cB  | 
w:  hâ lâ  bil mem  *  *  ni  | 
c6cB BAAB c4 z2 | B2 c4 B2c2 B2c2 d2_1/4ed  | \
w:  ye    |  Gö züm   | 
d3c dccB B8 B^A | 
w:  *  *  a *  cı *  yor   | 
^A2 A4 B2c2 d2e2 f2ed  | d3a g2=f_1/4e d4 edc2 cB | \
w:  *  ağ la rım   |  hâ *  lâ  *  *  bil mem  *  *  ni  | 
B6 a_bag gfg4fa  | 
w:  ye   SAZ  | 
g4 f2g2 g4 fga_b ag | gf2eed gff4fe edd2  | 
w:  *  İs te mem   |  *  *  *  ge *  ce *  yi   | 
z2d4e2 f2g2 a2_b2 ag | g4g3agf2gfe d2gf  | \
w:  on da  meh *  tâb   |  *  gam  *  ol *  *  du  *  *  di  | 
f6ef ggfe d3g fa | 
w:  ye   SAZ  | 
g4f2 g2g4fg a_bag  | gf2e edgf f4 feed d2 | 
w:  *  İs te mem   |  *  *  *  ge *  ce *  yi   | 
z2 d4 e2f2 gag2 fede  | d4 e3/2d/e2 f3/2e/f2 g2e2 ed | 
w:  on da  meh *  *  tâb   |  *  gam  *  *  ol *  *  du  *  di  | 
d6 fedc Bcd4z2  | f2g2 f2e2 d2e2 f2g2 gf | \
w:  ye   SAZ  |  Gö züm   | 
f3efe edd4d2 edcB  | 
w:  *  *  a *  cı *  yor   | 
c2e4d2 e2d2 e2f2 g2 | f4e4d4_1/4ed c2cB  | \
w:  *  ağ la rım   |  hâ lâ  bil mem  *  *  ni  | 
c6cB BAAB c4 z2 | 
w:  ye    | 
B2 c4 B2c2 B2c2 d2_1/4ed  | d3c dccB B8 B^A | \
w:  Gö züm   |  *  *  a *  cı *  yor   | 
^A2 A4 B2c2 d2e2 f2ed  | 
w:  *  ağ la rım   | 
d3a g2=f_1/4e d4 edc2 cB | B6 |
w:  hâ *  lâ  *  *  bil mem  *  *  ni  |  ye    | 


